X: 1
T: Fiddler's Moon
C: \251 David A. Kaynor, June, 2014
%D:2014
S: https://natunelist.net/fiddlers-moon/
M: 4/4
L: 1/8
R: reel
V: 1 staves=2
K: Dm
   Ac |\
"Dm"dcAF "G"G2AG |"Am"FDCA, "F"CFAc | "Dm"dcAF "G"G2FG | "Am"Addc "Dm"d2"Am"fe |\
"Dm"dcAF "G"G2AG |"Am"FDCA, "F"CFAc | "Dm"dcAF "G"G2AG | "Am"FDEF "Dm"D2 :|
|: Ac |\
"Dm"defa "G"g2ag | "Am"fedc "Dm"dAAc | defa "G"g2ag | "Am"edcA "Dm"d2Ac |\
"Dm"defa "G"g2ag | "Am"fedc dABc | "Dm"dcAF "G"G2AG | "Am"FDEF "Dm"D2 :|
